src/main/resources/META-INF/pluginIcon.svg

<?xml version="1.0" encoding="UTF-8"?>
<svg width="40" height="40" version="1.1" viewBox="0 0 10.583 10.583" xmlns="http://www.w3.org/2000/svg" xmlns:cc="http://creativecommons.org/ns#" xmlns:dc="http://purl.org/dc/elements/1.1/" xmlns:rdf="http://www.w3.org/1999/02/22-rdf-syntax-ns#">
 <defs>
  <style>.cls-1{fill:#fff;}.cls-2{fill:#1b1b1b;}.cls-3{fill:#ff0090;}</style>
 </defs>
 <metadata>
  <rdf:RDF>
   <cc:Work rdf:about="">
    <dc:format>image/svg+xml</dc:format>
    <dc:type rdf:resource="http://purl.org/dc/dcmitype/StillImage"/>
    <dc:title/>
   </cc:Work>
  </rdf:RDF>
 </metadata>
 <g transform="matrix(.087471 0 0 .087471 .53002 1.1873)" data-name="Layer 2">
  <g data-name="Layer 1">
   <path class="cls-1" d="m54.43 0a5.67 5.67 0 0 0-4.88 2.78l-18.3 31h-10.57a5.67 5.67 0 0 0-5.68 5.64v15a5.7 5.7 0 0 0 1.66 4l-15.86 26.87a5.67 5.67 0 0 0 4.88 8.55h15a5.67 5.67 0 0 0 4.88-2.79l18.3-31h4.9v28.12a5.67 5.67 0 0 0 5.67 5.67h15a5.67 5.67 0 0 0 5.67-5.67v-28.08h28.08a5.67 5.67 0 0 0 5.67-5.67v-15a5.67 5.67 0 0 0-5.67-5.67h-28.08v-28.08a5.67 5.67 0 0 0-5.67-5.67zm3.23 11.34h6.1v28.08a5.67 5.67 0 0 0 5.67 5.67h28.08v3.66h-28.08a5.67 5.67 0 0 0-5.67 5.67v28.08h-3.66v-28.08a5.67 5.67 0 0 0-5.67-5.67h-13.81a5.68 5.68 0 0 0-4.88 2.78l-18.3 31h-1.83l14.89-25.23a5.67 5.67 0 0 0-4.15-8.5v-3.71h8.13a5.66 5.66 0 0 0 4.88-2.79zm-3.17 14.05a5.65 5.65 0 0 0-4.94 2.78l-4.95 8.36a5.67 5.67 0 0 0 4.88 8.56h5a5.67 5.67 0 0 0 5.67-5.67v-8.37a5.67 5.67 0 0 0-5.61-5.66zm-0.06-19.72-20 33.75h-13.75v15h4.94l-19.94 33.75h15l19.94-33.75h13.81v33.75h15v-33.75h33.75v-15h-33.75v-33.75zm0 25.38v8.37h-5z" fill="#fff"/>
   <path class="cls-2" d="m54.42 88.17h15v-33.75h33.75v-15h-33.75v-33.75h-15v33.75h-33.75v15h33.75z" fill="#1b1b1b"/>
   <path class="cls-3" d="m54.42 5.65-48.75 82.5h15l33.75-57.15z" fill="#ff0090"/>
   <path class="cls-3" d="m20.67 88.17 48.75-82.5h-15l-48.75 82.5z" fill="#ff0090"/>
  </g>
 </g>
</svg>

<?xml version="1.0" encoding="UTF-8" standalone="no"?>
<svg
   xmlns:dc="http://purl.org/dc/elements/1.1/"
   xmlns:cc="http://creativecommons.org/ns#"
   xmlns:rdf="http://www.w3.org/1999/02/22-rdf-syntax-ns#"
   xmlns:svg="http://www.w3.org/2000/svg"
   xmlns="http://www.w3.org/2000/svg"
   xmlns:sodipodi="http://sodipodi.sourceforge.net/DTD/sodipodi-0.dtd"
   xmlns:inkscape="http://www.inkscape.org/namespaces/inkscape"
   width="40"
   height="40"
   version="1.1"
   viewBox="0 0 10.583 10.583"
   id="svg825"
   sodipodi:docname="pluginIcon.svg"
   inkscape:version="0.92.5 (2060ec1f9f, 2020-04-08)">
  <defs
     id="defs829">
    <style
       id="style895">.cls-1{fill:#fff;}.cls-2{fill:#1b1b1b;}.cls-3{fill:#ff0090;}</style>
  </defs>
  <sodipodi:namedview
     pagecolor="#ffffff"
     bordercolor="#666666"
     borderopacity="1"
     objecttolerance="10"
     gridtolerance="10"
     guidetolerance="10"
     inkscape:pageopacity="0"
     inkscape:pageshadow="2"
     inkscape:window-width="2560"
     inkscape:window-height="1403"
     id="namedview827"
     showgrid="true"
     inkscape:zoom="16"
     inkscape:cx="-0.19624206"
     inkscape:cy="27.840296"
     inkscape:window-x="1920"
     inkscape:window-y="0"
     inkscape:window-maximized="1"
     inkscape:current-layer="svg825">
    <inkscape:grid
       type="xygrid"
       id="grid831" />
  </sodipodi:namedview>
  <metadata
     id="metadata815">
    <rdf:RDF>
      <cc:Work
         rdf:about="">
        <dc:format>image/svg+xml</dc:format>
        <dc:type
           rdf:resource="http://purl.org/dc/dcmitype/StillImage" />
        <dc:title></dc:title>
      </cc:Work>
    </rdf:RDF>
  </metadata>
  <g
     data-name="Layer 2"
     id="Layer_2"
     transform="matrix(0.08747148,0,0,0.08747148,0.53002423,1.1873382)">
    <g
       data-name="Layer 1"
       id="Layer_1-2">
      <path
         id="path899"
         d="m 54.43,0 a 5.67,5.67 0 0 0 -4.88,2.78 l -18.3,31 H 20.68 A 5.67,5.67 0 0 0 15,39.42 v 15 a 5.7,5.7 0 0 0 1.66,4 L 0.8,85.29 a 5.67,5.67 0 0 0 4.88,8.55 h 15 a 5.67,5.67 0 0 0 4.88,-2.79 l 18.3,-31 h 4.9 v 28.12 a 5.67,5.67 0 0 0 5.67,5.67 h 15 A 5.67,5.67 0 0 0 75.1,88.17 V 60.09 h 28.08 a 5.67,5.67 0 0 0 5.67,-5.67 v -15 a 5.67,5.67 0 0 0 -5.67,-5.67 H 75.1 V 5.67 A 5.67,5.67 0 0 0 69.43,0 Z m 3.23,11.34 h 6.1 v 28.08 a 5.67,5.67 0 0 0 5.67,5.67 h 28.08 v 3.66 H 69.43 a 5.67,5.67 0 0 0 -5.67,5.67 V 82.5 H 60.1 V 54.42 A 5.67,5.67 0 0 0 54.43,48.75 H 40.62 a 5.68,5.68 0 0 0 -4.88,2.78 l -18.3,31 H 15.61 L 30.5,57.3 a 5.67,5.67 0 0 0 -4.15,-8.5 v -3.71 h 8.13 a 5.66,5.66 0 0 0 4.88,-2.79 z m -3.17,14.05 a 5.65,5.65 0 0 0 -4.94,2.78 l -4.95,8.36 a 5.67,5.67 0 0 0 4.88,8.56 h 5 a 5.67,5.67 0 0 0 5.67,-5.67 V 31.05 A 5.67,5.67 0 0 0 54.54,25.39 Z M 54.43,5.67 34.43,39.42 H 20.68 v 15 h 4.94 L 5.68,88.17 h 15 L 40.62,54.42 h 13.81 v 33.75 h 15 V 54.42 h 33.75 v -15 H 69.43 V 5.67 Z m 0,25.38 v 8.37 h -5 z"
         class="cls-1"
         inkscape:connector-curvature="0"
         style="fill:#ffffff" />
      <path
         id="path901"
         d="m 54.42,88.17 h 15 V 54.42 h 33.75 v -15 H 69.42 V 5.67 h -15 V 39.42 H 20.67 v 15 h 33.75 z"
         class="cls-2"
         inkscape:connector-curvature="0"
         style="fill:#1b1b1b" />
      <path
         id="path903"
         d="M 54.42,5.65 5.67,88.15 h 15 L 54.42,31 Z"
         class="cls-3"
         inkscape:connector-curvature="0"
         style="fill:#ff0090" />
      <path
         id="path905"
         d="M 20.67,88.17 69.42,5.67 h -15 L 5.67,88.17 Z"
         class="cls-3"
         inkscape:connector-curvature="0"
         style="fill:#ff0090" />
    </g>
  </g>
</svg>
